<?xml version="1.0" encoding="UTF-8"?>
<map version="1.10" tiledversion="1.11.0" orientation="orthogonal" renderorder="right-down" width="40" height="39" tilewidth="16" tileheight="16" infinite="1" nextlayerid="2" nextobjectid="1">
 <tileset firstgid="1" source="C:/Users/shyll/Documents/grass.tsx"/>
 <layer id="1" name="Tile Layer 1" width="40" height="39">
  <data encoding="csv">
   <chunk x="0" y="0" width="16" height="16">
1,2,2,2,2,3,0,0,0,0,0,0,0,0,0,0,
12,13,57,69,13,14,0,0,0,0,0,0,0,0,0,0,
12,56,13,67,60,14,0,0,0,0,0,0,0,0,0,0,
12,71,13,57,13,14,0,0,0,0,0,0,0,0,0,0,
12,67,72,13,56,14,0,0,0,0,0,0,0,0,0,0,
23,24,24,24,24,25,0,0,0,0,0,0,0,0,0,0,
0,0,0,0,0,0,0,0,0,0,0,0,0,0,0,0,
0,0,0,0,0,0,0,0,0,0,0,0,0,0,0,0,
0,0,0,0,0,0,0,0,0,0,0,0,0,0,0,0,
0,0,0,0,0,0,0,0,0,0,0,0,0,0,0,0,
0,0,0,0,0,0,0,0,0,0,0,0,0,0,0,0,
0,0,0,0,0,0,0,0,0,0,0,0,0,0,0,0,
0,0,0,0,0,0,0,0,0,0,0,0,0,0,0,0,
0,0,0,0,0,0,0,0,0,0,0,0,0,0,0,0,
0,0,0,0,0,0,0,0,0,0,0,0,0,0,0,0,
0,0,0,0,0,0,0,0,0,0,0,0,0,0,0,0
</chunk>
  </data>
 </layer>
</map>
